public/img/quotation.svg

<svg width="113" height="94" viewBox="0 0 113 94" fill="none" xmlns="http://www.w3.org/2000/svg">
<path d="M34.5918 46.3C38.9918 48.1 42.3918 51 44.7918 55C47.3918 58.8 48.6918 63.4 48.6918 68.8C48.6918 76 46.3918 81.9 41.7918 86.5C37.1918 91.1 31.4918 93.4 24.6918 93.4C17.4918 93.4 11.5918 91.1 6.9918 86.5C2.3918 81.9 0.0917969 76 0.0917969 68.8C0.0917969 65.2 0.491797 61.7 1.2918 58.3C2.2918 54.9 4.0918 49.8 6.6918 43L22.5918 0.399963H46.5918L34.5918 46.3ZM98.1918 46.3C102.592 48.1 105.992 51 108.392 55C110.992 58.8 112.292 63.4 112.292 68.8C112.292 76 109.992 81.9 105.392 86.5C100.792 91.1 95.0918 93.4 88.2918 93.4C81.0918 93.4 75.1918 91.1 70.5918 86.5C65.9918 81.9 63.6918 76 63.6918 68.8C63.6918 65.2 64.0918 61.7 64.8918 58.3C65.8918 54.9 67.6918 49.8 70.2918 43L86.1918 0.399963H110.192L98.1918 46.3Z" fill="white"/>
</svg>

<?xml version="1.0" encoding="utf-8"?>
<!-- Generator: Adobe Illustrator 24.2.0, SVG Export Plug-In . SVG Version: 6.00 Build 0)  -->
<svg version="1.1" id="Layer_1" xmlns="http://www.w3.org/2000/svg" xmlns:xlink="http://www.w3.org/1999/xlink" x="0px" y="0px"
	 viewBox="0 0 113 94" style="enable-background:new 0 0 113 94;" xml:space="preserve">
<style type="text/css">
	.st0{fill:#FFFFFF;}
</style>
<path class="st0" d="M34.6,46.3C39,48.1,42.4,51,44.8,55c2.6,3.8,3.9,8.4,3.9,13.8c0,7.2-2.3,13.1-6.9,17.7s-10.3,6.9-17.1,6.9
	c-7.2,0-13.1-2.3-17.7-6.9S0.1,76,0.1,68.8c0-3.6,0.4-7.1,1.2-10.5c1-3.4,2.8-8.5,5.4-15.3L22.6,0.4h24L34.6,46.3z M98.2,46.3
	c4.4,1.8,7.8,4.7,10.2,8.7c2.6,3.8,3.9,8.4,3.9,13.8c0,7.2-2.3,13.1-6.9,17.7s-10.3,6.9-17.1,6.9c-7.2,0-13.1-2.3-17.7-6.9
	C66,81.9,63.7,76,63.7,68.8c0-3.6,0.4-7.1,1.2-10.5c1-3.4,2.8-8.5,5.4-15.3L86.2,0.4h24L98.2,46.3z"/>
</svg>
